icons/svg/dribbble.svg

﻿<?xml version="1.0" encoding="utf-8"?>
<!DOCTYPE svg PUBLIC "-//W3C//DTD SVG 1.1//EN" "http://www.w3.org/Graphics/SVG/1.1/DTD/svg11.dtd">
<svg xmlns="http://www.w3.org/2000/svg" xmlns:xlink="http://www.w3.org/1999/xlink" version="1.1" baseProfile="full" width="24" height="24" viewBox="0 0 24.00 24.00" enable-background="new 0 0 24.00 24.00" xml:space="preserve">
	<path fill="#000000" fill-opacity="1" stroke-width="0.2" stroke-linejoin="round" d="M 16.4156,18.4171C 16.02,16.48 15.5222,14.7333 14.9756,13.1744C 15.4822,13.102 16.0134,13.0607 16.5756,13.0607L 16.5956,13.0607L 16.5978,13.0607L 16.5978,13.0607C 17.5289,13.0607 18.5511,13.1765 19.66,13.4285C 19.2756,15.4913 18.0822,17.268 16.4156,18.4171 Z M 12,19.8025C 10.2644,19.8025 8.66222,19.2282 7.36445,18.2647C 7.64001,17.81 8.23335,16.938 9.17557,16.0362C 10.1445,15.1073 11.4822,14.1513 13.2289,13.5822C 13.8222,15.2467 14.36,17.1496 14.7689,19.2913C 13.9067,19.6198 12.9756,19.8025 12,19.8025 Z M 4.19779,12.0005C 4.19779,11.9638 4.20001,11.9262 4.20224,11.8878C 4.42446,11.896 4.70888,11.9033 5.05334,11.9033L 5.05556,11.9033C 6.62446,11.8929 9.36223,11.7618 12.1378,10.886C 12.2889,11.2165 12.4378,11.5609 12.5867,11.9187C 10.7333,12.5385 9.27333,13.5258 8.19334,14.5091C 7.15555,15.4558 6.45335,16.3931 6.04221,17.0193C 4.89557,15.6598 4.19779,13.9134 4.19779,12.0005 Z M 8.55334,5.01155C 9.09557,5.65133 10.18,7.05799 11.3378,9.2549C 8.98224,9.95599 6.61112,10.1204 5.17557,10.12C 5.13556,10.12 5.09557,10.12 5.05556,10.1196L 5.05334,10.1196C 4.81112,10.1196 4.60444,10.116 4.4311,10.1105C 4.99111,7.87068 6.52445,6.01556 8.55334,5.01155 Z M 12,4.19845C 13.84,4.19845 15.5289,4.84179 16.8645,5.91289C 15.8422,7.13712 14.4911,8.02424 13.0333,8.65022C 12.0089,6.66867 11.0178,5.25113 10.3422,4.38446C 10.8778,4.26578 11.4311,4.19845 12,4.19845 Z M 18.1267,7.18467C 19.1022,8.42355 19.7133,9.95778 19.7911,11.6331C 18.6622,11.3938 17.5956,11.2771 16.6,11.2771L 16.6,11.2767L 16.5933,11.2767C 15.7933,11.2767 15.0422,11.3493 14.3333,11.4749C 14.16,11.0531 13.9867,10.6482 13.8111,10.2602C 15.3889,9.56824 16.9022,8.58357 18.1267,7.18467 Z M 12,1.99999C 6.47556,2.00046 2.00001,6.47734 2.00001,12.0005C 2.00001,17.5227 6.47556,22 12,22C 17.5222,22 22,17.5227 22,12.0005C 22,6.47734 17.5222,2.00046 12,1.99999 Z "/>
</svg>

<svg xmlns="http://www.w3.org/2000/svg" version="1.1" baseProfile="full" width="24" height="24" viewBox="0 0 24.00 24.00" xml:space="preserve"><path fill="#000" fill-opacity="1" stroke-width=".2" stroke-linejoin="round" d="M16.416 18.417c-.396-1.937-.894-3.684-1.44-5.243.506-.072 1.037-.113 1.6-.113h.022c.93 0 1.953.117 3.062.368-.384 2.063-1.578 3.84-3.244 4.99zM12 19.802c-1.736 0-3.338-.574-4.636-1.537.276-.455.87-1.327 1.812-2.23.97-.928 2.306-1.884 4.053-2.453.592 1.665 1.13 3.568 1.54 5.71-.863.328-1.794.51-2.77.51zm-7.802-7.8c0-.038.002-.076.004-.114.222.008.507.015.85.015h.004c1.568-.01 4.306-.14 7.082-1.017.15.33.3.675.45 1.033-1.855.62-3.315 1.606-4.395 2.59-1.037.946-1.74 1.883-2.15 2.51-1.147-1.36-1.845-3.107-1.845-5.02zm4.355-6.99c.543.64 1.627 2.046 2.785 4.243-2.356.7-4.727.865-6.162.865h-.123c-.242 0-.45-.004-.622-.01.56-2.24 2.094-4.094 4.123-5.098zM12 4.198c1.84 0 3.53.644 4.864 1.715-1.022 1.224-2.373 2.11-3.83 2.737-1.025-1.98-2.016-3.4-2.692-4.266.536-.118 1.09-.186 1.658-.186zm6.127 2.987c.975 1.24 1.586 2.773 1.664 4.448-1.128-.24-2.194-.356-3.19-.356h-.007c-.8 0-1.55.072-2.26.198-.173-.422-.346-.827-.522-1.215 1.58-.692 3.092-1.676 4.317-3.075zM12 2C6.476 2 2 6.477 2 12s4.476 10 10 10c5.522 0 10-4.477 10-10S17.522 2 12 2z"/></svg>
